X: 201
T:Big Squeeze
S:Irtrad
D:Sharon Shannon
M:4/4
L:1/8
K:D
B2dB FBdB|GBdB cdec|B2dB FBdB|cBAB cde2:|
Ad (3ddd adfd|adfd cde2|Ad (3ddd adfd|cBAB cdeg:|
B2 dB FBdB|GBdB cdec| B2 dB FBdB|cBAB cd e2:|
ge (3eee geaf|ge (3eee g3 f|geaf gfed|cdef g3 a:|
c'a (3aaa fd (3ddd|cdef g3 a|c'a (3aaa fedB|ABcd efga:|
fdBd FdAd|fdAd cdeg|fdAd FdAd|cBAB cd e2:|
Ad (3ddd adfd|adfd cd e2|Ad (3ddd adfd|cBAB cdeg:|
